src/assets/icons/icons-origin/CreditCard.svg

<svg width="24" height="24" viewBox="0 0 24 24" xmlns="http://www.w3.org/2000/svg">
  <path d="M19 5H5C4.20435 5 3.44129 5.31607 2.87868 5.87868C2.31607 6.44129 2 7.20435 2 8V16C2 16.7956 2.31607 17.5587 2.87868 18.1213C3.44129 18.6839 4.20435 19 5 19H19C19.7956 19 20.5587 18.6839 21.1213 18.1213C21.6839 17.5587 22 16.7956 22 16V8C22 7.20435 21.6839 6.44129 21.1213 5.87868C20.5587 5.31607 19.7956 5 19 5ZM11 15H7C6.73478 15 6.48043 14.8946 6.29289 14.7071C6.10536 14.5196 6 14.2652 6 14C6 13.7348 6.10536 13.4804 6.29289 13.2929C6.48043 13.1054 6.73478 13 7 13H11C11.2652 13 11.5196 13.1054 11.7071 13.2929C11.8946 13.4804 12 13.7348 12 14C12 14.2652 11.8946 14.5196 11.7071 14.7071C11.5196 14.8946 11.2652 15 11 15ZM17 15H15C14.7348 15 14.4804 14.8946 14.2929 14.7071C14.1054 14.5196 14 14.2652 14 14C14 13.7348 14.1054 13.4804 14.2929 13.2929C14.4804 13.1054 14.7348 13 15 13H17C17.2652 13 17.5196 13.1054 17.7071 13.2929C17.8946 13.4804 18 13.7348 18 14C18 14.2652 17.8946 14.5196 17.7071 14.7071C17.5196 14.8946 17.2652 15 17 15ZM20 9H4V8C4 7.73478 4.10536 7.48043 4.29289 7.29289C4.48043 7.10536 4.73478 7 5 7H19C19.2652 7 19.5196 7.10536 19.7071 7.29289C19.8946 7.48043 20 7.73478 20 8V9Z" fill="currentColor" />
</svg>

<svg width="24" height="24" viewBox="0 0 24 24" xmlns="http://www.w3.org/2000/svg">
  <path d="M19 5H5a3 3 0 0 0-3 3v8a3 3 0 0 0 3 3h14a3 3 0 0 0 3-3V8a3 3 0 0 0-3-3Zm-8 10H7a1 1 0 0 1 0-2h4a1 1 0 0 1 0 2Zm6 0h-2a1 1 0 0 1 0-2h2a1 1 0 0 1 0 2Zm3-6H4V8a1 1 0 0 1 1-1h14a1 1 0 0 1 1 1v1Z" fill="currentColor"/>
</svg>
